data/icons/info.svg

<svg fill="#fff" viewBox="0 0 448 512" xmlns="http://www.w3.org/2000/svg"><path d="m384 32h-320c-35.35 0-64 28.66-64 64v320c0 35.34 28.65 64 64 64h320c35.35 0 64-28.66 64-64v-320c0-35.34-28.7-64-64-64zm16 384c0 8.82-7.178 16-16 16h-320c-8.822 0-16-7.18-16-16v-320c0-8.82 7.178-16 16-16h320c8.822 0 16 7.18 16 16zm-136-80h-16v-88c0-13.2-10.7-24-24-24h-32c-13.2 0-24 10.8-24 24s10.8 24 24 24h8v64h-16c-13.2 0-24 10.8-24 24s10.8 24 24 24h80c13.25 0 24-10.75 24-24s-10.7-24-24-24zm-40-144c17.67 0 32-14.33 32-32s-14.33-32-32-32-32 14.3-32 32 14.3 32 32 32z"/></svg>

<svg fill="#FFFFFF" xmlns="http://www.w3.org/2000/svg" viewBox="0 0 448 512"><!--! Font Awesome Pro 6.1.2 by @fontawesome - https://fontawesome.com License - https://fontawesome.com/license (Commercial License) Copyright 2022 Fonticons, Inc. --><path d="M384 32H64C28.65 32 0 60.66 0 96v320c0 35.34 28.65 64 64 64h320c35.35 0 64-28.66 64-64V96C448 60.66 419.3 32 384 32zM400 416c0 8.82-7.178 16-16 16H64c-8.822 0-16-7.18-16-16V96c0-8.82 7.178-16 16-16h320c8.822 0 16 7.18 16 16V416zM264 336h-16V248C248 234.8 237.3 224 224 224H192C178.8 224 168 234.8 168 248S178.8 272 192 272h8v64h-16C170.8 336 160 346.8 160 360S170.8 384 184 384h80c13.25 0 24-10.75 24-24S277.3 336 264 336zM224 192c17.67 0 32-14.33 32-32c0-17.67-14.33-32-32-32S192 142.3 192 160C192 177.7 206.3 192 224 192z"/></svg>
